icons/lines/ticket-star.svg

<svg xmlns="http://www.w3.org/2000/svg" width="24" height="24" viewBox="0 0 24 24" fill="none" stroke="currentColor" stroke-width="2" stroke-linecap="round" stroke-linejoin="round" >
  <path d="M16.9949 4H6.99488C3.16488 4 2.09488 4.92 2.00488 8.5C3.93488 8.5 5.49488 10.07 5.49488 12C5.49488 13.93 3.93488 15.49 2.00488 15.5C2.09488 19.08 3.16488 20 6.99488 20H16.9949C20.9949 20 21.9949 19 21.9949 15V9C21.9949 5 20.9949 4 16.9949 4Z"/>
  <path d="M8.99316 4V7.5"/>
  <path d="M8.99316 16.5V20"/>
  <path d="M15.025 9.33L15.645 10.58C15.705 10.7 15.825 10.79 15.955 10.81L17.335 11.01C17.675 11.06 17.815 11.48 17.565 11.72L16.565 12.69C16.465 12.78 16.425 12.92 16.445 13.06L16.685 14.43C16.745 14.77 16.385 15.03 16.085 14.87L14.855 14.22C14.735 14.16 14.585 14.16 14.465 14.22L13.235 14.87C12.925 15.03 12.575 14.77 12.635 14.43L12.875 13.06C12.895 12.92 12.855 12.79 12.755 12.69L11.765 11.72C11.515 11.48 11.655 11.06 11.995 11.01L13.375 10.81C13.515 10.79 13.625 10.71 13.685 10.58L14.295 9.33C14.435 9.02 14.875 9.02 15.025 9.33Z"/>
  </svg>

<svg xmlns="http://www.w3.org/2000/svg" width="24" height="24" viewBox="0 0 24 24" fill="none" stroke="currentColor" stroke-width="2" stroke-linecap="round" stroke-linejoin="round">
  <path d="M15.645 10.58a.43.43 0 0 0 .31.23l1.38.2a.416.416 0 0 1 .23.71l-1 .97a.41.41 0 0 0-.12.37l.24 1.37a.415.415 0 0 1-.6.44l-1.23-.65a.45.45 0 0 0-.39 0l-1.23.65a.413.413 0 0 1-.6-.44l.24-1.37a.42.42 0 0 0-.12-.37l-.99-.97a.416.416 0 0 1 .23-.71l1.38-.2a.39.39 0 0 0 .31-.23l.61-1.25a.403.403 0 0 1 .73 0z" />
  <path d="M6.995 4c-3.83 0-4.9.92-4.99 4.5a1 1 0 0 1 0 7c.09 3.58 1.16 4.5 4.99 4.5h10c4 0 5-1 5-5V9c0-4-1-5-5-5z" />
  <path d="M8.993 16.5V20" />
  <path d="M8.993 4v3.5" />
</svg>
